X:1
T:Leoni, 66.84 D
T:Leoni, 66.84 D
T:Hebrew Melody
T:Public Domain Courtesy of the Cyber Hymnal™
C:Hebrew Melody
Z:Public Domain
Z:Courtesy of the Cyber Hymnal™
%%score ( 1 2 ) ( 3 4 )
L:1/8
Q:1/4=115
M:4/4
K:Bb
V:1 treble 
V:2 treble 
V:3 bass 
V:4 bass 
V:1
 D2 | [DG]2 [DA]2 [DB]2 [Gc]2 | [^Fd]6 [=FB]2 | [Gc]2 [Fd]2 [Ge]2 [Ff]2 | [Fd]6 [FA]2 | %5
 [DB]2 [Fc]2 [Fd]2 [Ge]2 | [Ff]2 [EA]2 [DB]2 [Ge]2 | [Fd]4 c4 | [DB]6 [FB]2 | %9
 [Fd]2 [Ad]2 [Gd]2 [Fd]2 | c6 (BA) | (GA) (Bc) [DGd]2 [EG]2 | (G4 ^F2) D2 | %13
 [DG]2 [DA]2 [DB]2 [Fc]2 | [Fd]2 ([Gc][Fd]) [Ge]2 (dc) | [GB]4 [^FA]4 | [DG]6 |] %17
V:2
 D2 | x8 | x8 | x8 | x8 | x8 | x8 | x4 (F2 E2) | x8 | x8 | (F4 D2) D2 | D2 G2 x4 | D6 D2 | x8 | %14
 x6 A2 | x8 | x6 |] %17
V:3
 [G,,B,]2 | [G,B,]2 [^F,A,]2 G,2 [E,G,]2 | [D,A,]6 [D,B,]2 | (G,A,) [D,=B,]2 [C,C]2 [F,,F,A,]2 | %4
 [B,,B,]6 C2 | [D,B,]2 [F,A,]2 B,2 [G,B,]2 | [D,B,]2 [F,C]2 [G,B,]2 [E,B,]2 | [F,B,]4 [F,,F,A,]4 | %8
 [B,,B,]6 [B,,D]2 | B,2 [^F,C]2 [G,B,]2 [D,B,]2 | [F,A,]6 [^F,C]2 | %11
 [G,B,]2 (G,A,) [B,,B,]2 [C,A,]2 | (B,4 A,2) ^F,2 | [B,,G,]2 [D,^F,]2 G,2 [=F,A,]2 | %14
 [B,,B,]2 ([E,G,][D,=B,]) [C,C]2 [C,E]2 | [D,D]4 (D2 C2) | [G,,G,B,]6 |] %17
V:4
 x2 | x4 G,2 x2 | x8 | E,2 x6 | x6 (F,E,) | x4 B,2 x2 | x8 | x8 | x8 | B,2 x6 | x8 | x2 E,2 x4 | %12
 D,6 (D,C,) | x4 G,2 x2 | x8 | x4 D,4 | x6 |] %17

